16x16/panel/fcitx-erbi-panel.svg

<svg xmlns="http://www.w3.org/2000/svg" width="16" height="16" version="1.1">
 <defs>
  <style id="current-color-scheme" type="text/css">
   .ColorScheme-Text { color:#323a41; } .ColorScheme-Highlight { color:#4285f4; } .ColorScheme-NeutralText { color:#ff9800; } .ColorScheme-PositiveText { color:#4caf50; } .ColorScheme-NegativeText { color:#f44336; }
  </style>
 </defs>
 <path style="fill:currentColor" class="ColorScheme-Text" d="M 2 0 C 0.892 0 0 0.892 0 2 L 0 14 C 0 15.108 0.892 16 2 16 L 14 16 C 15.108 16 16 15.108 16 14 L 16 2 C 16 0.892 15.108 0 14 0 L 2 0 z M 10.03125 0.9921875 L 11.03125 1.0078125 C 11.021062 1.6879602 11.043325 2.3455896 11.068359 3 L 14 3 L 14 4 L 11.117188 4 C 11.266012 6.3082376 11.59863 8.4006193 12.007812 10.033203 C 12.298113 11.191476 12.623593 12.126867 12.919922 12.742188 C 13.068086 13.049847 13.212807 13.276703 13.316406 13.398438 C 13.362586 13.452697 13.314985 13.4285 13.328125 13.4375 C 13.566495 13.373903 13.699315 13.283743 13.806641 13.007812 C 13.928284 12.695071 13.982734 12.196257 13.990234 11.632812 L 14.990234 11.644531 C 14.982169 12.251378 14.943272 12.842118 14.738281 13.369141 C 14.533291 13.896164 14.078213 14.368195 13.435547 14.480469 A 0.50005 0.50005 0 0 1 13.355469 14.486328 C 12.983482 14.491132 12.747916 14.273927 12.554688 14.046875 C 12.361456 13.819823 12.190941 13.531708 12.019531 13.175781 C 11.676713 12.463927 11.341014 11.480154 11.039062 10.275391 C 10.609645 8.5620428 10.265475 6.3930814 10.115234 4 L 2 4 L 2 3 L 10.070312 3 C 10.045744 2.3399811 10.020971 1.6784048 10.03125 0.9921875 z M 13 1 C 13.416833 1.3789393 13.758179 1.7765262 14.023438 2.1933594 L 13.056641 2.7617188 C 12.829277 2.3448854 12.525423 1.928552 12.146484 1.5117188 L 13 1 z M 3 5 L 9 5 L 9 6 L 3 6 L 3 5 z M 3 7 L 9 7 L 9 8 L 3 8 L 3 7 z M 3 9 L 4 9 L 9 9 L 9 12 L 8 12 L 8 10 L 4 10 L 4 12 L 3 12 L 3 10 L 3 9 z M 5.0097656 11 L 6.0917969 11 C 6.0085254 12.204012 5.7080472 13.115307 5.1621094 13.693359 C 4.5179127 14.413344 3.3626453 14.848424 1.6953125 15 L 1.2402344 14.033203 C 2.7559915 13.881627 3.7593321 13.540281 4.2519531 13.009766 C 4.6817255 12.579993 4.9281536 11.902276 5.0097656 11 z M 6.703125 11.998047 C 7.6504731 12.452774 8.5225869 12.983541 9.3183594 13.589844 L 8.5214844 14.5 C 7.7636059 13.855803 6.9309387 13.30629 6.0214844 12.851562 L 6.703125 11.998047 z"/>
</svg>

<svg xmlns="http://www.w3.org/2000/svg" width="16" height="16"><defs><style id="current-color-scheme" type="text/css"></style></defs><path d="M2 0C.892 0 0 .892 0 2v12c0 1.108.892 2 2 2h12c1.108 0 2-.892 2-2V2c0-1.108-.892-2-2-2H2zm8.031.992l1 .016c-.01.68.012 1.338.037 1.992H14v1h-2.883c.149 2.308.482 4.4.89 6.033.291 1.158.617 2.094.913 2.71.148.307.293.534.396.655.047.055-.001.03.012.04.238-.064.371-.154.479-.43.121-.313.176-.812.183-1.375l1 .012c-.008.606-.047 1.197-.252 1.724-.205.527-.66 1-1.302 1.111a.5.5 0 0 1-.08.006c-.373.005-.608-.212-.801-.44-.194-.226-.364-.514-.535-.87-.343-.712-.679-1.696-.98-2.9-.43-1.714-.775-3.883-.925-6.276H2V3h8.07c-.024-.66-.049-1.322-.039-2.008zM13 1c.417.379.758.777 1.023 1.193l-.966.569a6.515 6.515 0 0 0-.91-1.25L13 1zM3 5h6v1H3V5zm0 2h6v1H3V7zm0 2h6v3H8v-2H4v2H3V9zm2.01 2h1.082c-.083 1.204-.384 2.115-.93 2.693-.644.72-1.8 1.155-3.467 1.307l-.455-.967c1.516-.151 2.52-.493 3.012-1.023.43-.43.676-1.108.758-2.01zm1.693.998c.947.455 1.82.986 2.615 1.592l-.797.91a12.416 12.416 0 0 0-2.5-1.648l.682-.854z" fill="currentColor" color="#d3dae3"/></svg>
